X: 6905
T: Cheeky Robin, The
R: hornpipe
M: 4/4
K: Gmajor
D2|:"G"GA/G/ FG "C"EG"G"DG|"Am7"AGBG "D7"cAFD|"G"GA/G/ FG "Em"EG"D"Dd|"G"gdBd "D7"afdc|
"G"BGcF "Am"AGEG|"D"DFAB/c/ "G"BGdB|gd (3d/e/d/^c/d/ "C"e=c"Am"ag||1 "D"fdcA "G"G2 DE/F/:|2 "D7"fA (3cBA "G"GA/G/ FG||
|:"D"A2 F/G/A cAFA|"G"GgdB "Am7"cEAG|"D"FG/F/ EF DFAc|"G"BGdB "D"A2 (3def|
"G"gf/g/ dG Bdgf|"C"ec"Am"ag "Bm7"fgdB|"Em7"c//d//c/B dB "C"Ggec||1 "D"ADBA "G"G2 FG:|2 "D7"BDAD "G"G2||

